src/platform/cursors/svg/bottom_side.svg

<svg xmlns="http://www.w3.org/2000/svg" width="32" height="32"><defs><filter id="a" x="-.12404" y="-.55819" width="1.2481" height="2.1164" color-interpolation-filters="sRGB"><feGaussianBlur stdDeviation=".93032228"/></filter><filter id="b" x="-.15902" y="-.1571" width="1.318" height="1.3142" color-interpolation-filters="sRGB"><feGaussianBlur stdDeviation=".93032228"/></filter></defs><path style="opacity:1;fill:#151515;fill-opacity:1;stroke:none;stroke-width:3" d="M8 25a1.0001 1.0001 0 0 0-1 1v2a1.0001 1.0001 0 0 0 1 1h16a1.0001 1.0001 0 0 0 1-1v-2a1.0001 1.0001 0 0 0-1-1H8zM15 9.7871094a1.0001 1.0001 0 0 0-1 1.0019526l.015625 6.039063-1.921875-1.921875a1.0001 1.0001 0 0 0-1.414062 0l-1.3867192 1.384766a1.0001 1.0001 0 0 0 0 1.416015l6.0000002 6a1.0001 1.0001 0 0 0 1.412109.001953l6.039063-6a1.0001 1.0001 0 0 0 .003906-1.416015l-1.386719-1.386719a1.0001 1.0001 0 0 0-1.414062 0l-1.931641 1.933594L18 10.785156a1.0001 1.0001 0 0 0-1-.9980466h-2zm1.021484 9.4648436a1.0001 1.0001 0 0 0 1.425782.900391l-1.445313 1.435547-1.466797-1.466797a1.0001 1.0001 0 0 0 1.486328-.869141z"/><g color="#000"><path d="M25 27a1.0001 1.0001 0 0 0-1-1H8a1.0001 1.0001 0 0 0-1 1v2a1.0001 1.0001 0 0 0 1 1h16a1.0001 1.0001 0 0 0 1-1z" filter="url(#a)" opacity=".35" style="font-feature-settings:normal;font-variant-alternates:normal;font-variant-caps:normal;font-variant-ligatures:normal;font-variant-numeric:normal;font-variant-position:normal;isolation:auto;mix-blend-mode:normal;paint-order:stroke fill markers;shape-padding:0;text-decoration-color:#000;text-decoration-line:none;text-decoration-style:solid;text-indent:0;text-orientation:mixed;text-transform:none;white-space:normal"/><path d="M15 10.787a1.0001 1.0001 0 0 0-1 1.002l.01563 6.0391-1.9219-1.9219a1.0001 1.0001 0 0 0-1.4141 0l-1.3867 1.3848a1.0001 1.0001 0 0 0 0 1.416l6 6a1.0001 1.0001 0 0 0 1.4121.002l6.0391-6a1.0001 1.0001 0 0 0 .0039-1.416l-1.3867-1.3868a1.0001 1.0001 0 0 0-1.4141 0l-1.9316 1.9336-.015625-6.0547a1.0001 1.0001 0 0 0-1-.99805zm1.0215 9.4648a1.0001 1.0001 0 0 0 1.4258.90039l-1.4453 1.4355-1.4668-1.4668a1.0001 1.0001 0 0 0 1.4863-.86914z" enable-background="new" filter="url(#b)" opacity=".35" style="font-feature-settings:normal;font-variant-alternates:normal;font-variant-caps:normal;font-variant-ligatures:normal;font-variant-numeric:normal;font-variant-position:normal;isolation:auto;mix-blend-mode:normal;shape-padding:0;text-decoration-color:#000;text-decoration-line:none;text-decoration-style:solid;text-indent:0;text-orientation:mixed;text-transform:none;white-space:normal"/></g><path style="opacity:1;fill:#fff;fill-opacity:1;stroke:none;stroke-width:3" d="m15 10.787109.021484 8.460938-3.634765-3.634766L10 16.998047 16 23l6.041016-6.001953-1.386719-1.384766-3.632813 3.634766L17 10.787109h-2zM8 26v2h16v-2H8z"/></svg>

<?xml version="1.0" encoding="UTF-8" standalone="no"?>
<svg
   xmlns:dc="http://purl.org/dc/elements/1.1/"
   xmlns:cc="http://creativecommons.org/ns#"
   xmlns:rdf="http://www.w3.org/1999/02/22-rdf-syntax-ns#"
   xmlns:svg="http://www.w3.org/2000/svg"
   xmlns="http://www.w3.org/2000/svg"
   xmlns:sodipodi="http://sodipodi.sourceforge.net/DTD/sodipodi-0.dtd"
   xmlns:inkscape="http://www.inkscape.org/namespaces/inkscape"
   width="32"
   height="32"
   version="1.1"
   viewBox="0 0 32 32"
   id="svg24"
   sodipodi:docname="bottom_side.svg"
   inkscape:version="1.0.1 (3bc2e813f5, 2020-09-07)">
  <metadata
     id="metadata28">
    <rdf:RDF>
      <cc:Work
         rdf:about="">
        <dc:format>image/svg+xml</dc:format>
        <dc:type
           rdf:resource="http://purl.org/dc/dcmitype/StillImage" />
        <dc:title></dc:title>
      </cc:Work>
    </rdf:RDF>
  </metadata>
  <sodipodi:namedview
     pagecolor="#ffffff"
     bordercolor="#666666"
     borderopacity="1"
     objecttolerance="10"
     gridtolerance="10"
     guidetolerance="10"
     inkscape:pageopacity="0"
     inkscape:pageshadow="2"
     inkscape:window-width="1920"
     inkscape:window-height="932"
     id="namedview26"
     showgrid="false"
     inkscape:zoom="16.904271"
     inkscape:cx="2.687104"
     inkscape:cy="20.324299"
     inkscape:window-x="0"
     inkscape:window-y="36"
     inkscape:window-maximized="1"
     inkscape:current-layer="svg24" />
  <defs
     id="defs8">
    <filter
       id="b"
       x="-.12404"
       y="-.55819"
       width="1.2481"
       height="2.1164"
       color-interpolation-filters="sRGB">
      <feGaussianBlur
         stdDeviation="0.93032228"
         id="feGaussianBlur2" />
    </filter>
    <filter
       id="a"
       x="-.15902"
       y="-.1571"
       width="1.318"
       height="1.3142"
       color-interpolation-filters="sRGB">
      <feGaussianBlur
         stdDeviation="0.93032228"
         id="feGaussianBlur5" />
    </filter>
  </defs>
  <path
     id="rect912"
     style="opacity:1;fill:#151515;fill-opacity:1;stroke:none;stroke-width:3"
     d="M 8 25 A 1.0001 1.0001 0 0 0 7 26 L 7 28 A 1.0001 1.0001 0 0 0 8 29 L 24 29 A 1.0001 1.0001 0 0 0 25 28 L 25 26 A 1.0001 1.0001 0 0 0 24 25 L 8 25 z " />
  <path
     id="rect908"
     style="opacity:1;fill:#151515;fill-opacity:1;stroke:none;stroke-width:3"
     d="M 15 9.7871094 A 1.0001 1.0001 0 0 0 14 10.789062 L 14.015625 16.828125 L 12.09375 14.90625 A 1.0001 1.0001 0 0 0 10.679688 14.90625 L 9.2929688 16.291016 A 1.0001 1.0001 0 0 0 9.2929688 17.707031 L 15.292969 23.707031 A 1.0001 1.0001 0 0 0 16.705078 23.708984 L 22.744141 17.708984 A 1.0001 1.0001 0 0 0 22.748047 16.292969 L 21.361328 14.90625 A 1.0001 1.0001 0 0 0 19.947266 14.90625 L 18.015625 16.839844 L 18 10.785156 A 1.0001 1.0001 0 0 0 17 9.7871094 L 15 9.7871094 z M 16.021484 19.251953 A 1.0001 1.0001 0 0 0 17.447266 20.152344 L 16.001953 21.587891 L 14.535156 20.121094 A 1.0001 1.0001 0 0 0 16.021484 19.251953 z " />
  <g
     shape-rendering="auto"
     id="g16">
    <path
       d="m25 27a1.0001 1.0001 0 0 0-1-1h-16a1.0001 1.0001 0 0 0-1 1v2a1.0001 1.0001 0 0 0 1 1h16a1.0001 1.0001 0 0 0 1-1z"
       color="#000000"
       color-rendering="auto"
       dominant-baseline="auto"
       filter="url(#b)"
       image-rendering="auto"
       opacity=".35"
       solid-color="#000000"
       style="font-feature-settings:normal;font-variant-alternates:normal;font-variant-caps:normal;font-variant-ligatures:normal;font-variant-numeric:normal;font-variant-position:normal;isolation:auto;mix-blend-mode:normal;paint-order:stroke fill markers;shape-padding:0;text-decoration-color:#000000;text-decoration-line:none;text-decoration-style:solid;text-indent:0;text-orientation:mixed;text-transform:none;white-space:normal"
       id="path10" />
    <path
       d="m15 10.787a1.0001 1.0001 0 0 0-1 1.002l0.01563 6.0391-1.9219-1.9219a1.0001 1.0001 0 0 0-1.4141 0l-1.3867 1.3848a1.0001 1.0001 0 0 0 0 1.416l6 6a1.0001 1.0001 0 0 0 1.4121 2e-3l6.0391-6a1.0001 1.0001 0 0 0 0.0039-1.416l-1.3867-1.3868a1.0001 1.0001 0 0 0-1.4141 0l-1.9316 1.9336-0.015625-6.0547a1.0001 1.0001 0 0 0-1-0.99805zm1.0215 9.4648a1.0001 1.0001 0 0 0 1.4258 0.90039l-1.4453 1.4355-1.4668-1.4668a1.0001 1.0001 0 0 0 1.4863-0.86914z"
       color="#000000"
       color-rendering="auto"
       dominant-baseline="auto"
       enable-background="new"
       filter="url(#a)"
       image-rendering="auto"
       opacity=".35"
       solid-color="#000000"
       style="font-feature-settings:normal;font-variant-alternates:normal;font-variant-caps:normal;font-variant-ligatures:normal;font-variant-numeric:normal;font-variant-position:normal;isolation:auto;mix-blend-mode:normal;shape-padding:0;text-decoration-color:#000000;text-decoration-line:none;text-decoration-style:solid;text-indent:0;text-orientation:mixed;text-transform:none;white-space:normal"
       id="path12" />
  </g>
  <path
     id="rect899"
     style="opacity:1;fill:#ffffff;fill-opacity:1;stroke:none;stroke-width:3"
     d="M 15 10.787109 L 15.021484 19.248047 L 11.386719 15.613281 L 10 16.998047 L 16 23 L 22.041016 16.998047 L 20.654297 15.613281 L 17.021484 19.248047 L 17 10.787109 L 15 10.787109 z " />
  <path
     id="rect903"
     style="opacity:1;fill:#ffffff;fill-opacity:1;stroke:none;stroke-width:3"
     d="M 8 26 L 8 28 L 24 28 L 24 26 L 8 26 z " />
</svg>
